!!! OTL: Berkowitz19
!!! Chapter: 1
!!! Section: I
!!! Page: 8
!!! Mode: 
!!! Encoder: DJB
**kern
*staff1
*I"Piano
=1-
*clefG2
*k[b-]
*F:
*M2/4
4f/
4e/
=2
4d/
4c/
=3
4d/
4e/
=4
2f/
=5
8f/L
8g/J
8a/L
8b-/J
=6
4cc\
8b-/L
8a/J
=7
2g/
=8
8f/L
8g/J
8a/L
8b-/J
=9
4a/
8g/L
8f/J
=10
4e/
4d/
=11
8c/L
8c/J
8d/L
8e/J
=12
2f/
==
*-
